// =======================================================================================================
// =========================================== MIDI INITIALIZATION =======================================
// =======================================================================================================

(

MIDIClient.init;
MIDIIn.disconnectAll;
MIDIIn.connectAll;

)
