//=======================================================================================================
//===========================================MIDI=INITIALIZATION=========================================
//=======================================================================================================

(
MIDIClient.init;
MIDIIn.disconnectAll;
MIDIIn.connectAll;

// Traccia tutti i messaggi MIDI ricevuti per debug
MIDIdef.trace(true);
)
